X:1
T:Sing to Me of Heaven
T:Benjamin Burke Beall
T:Sing to Me of Heaven
T:Public Domain
T:Public Domain
T:Public Domain
C:Benjamin Burke Beall
Z:Public Domain
%%score ( 1 2 ) 3
L:1/8
M:4/4
K:G
V:1 treble 
V:2 treble 
V:3 bass 
V:1
 D[DG] | [GB]2 [GB]2 [GB][GB][DG][DF] | [CE]2 [CG]2 [B,D]2 [DG][GB] | %3
w: 1.~Sing to|of Hea- ven, sing that song|of peace, From the toils|
w: 2~Sing to|of Hea- ven, as I walk|a- lone, Dream- ing of|
w: 3.~Sing to|of Hea- ven, ten- der- ly|and low, Till the sha-|
 [Gd]2 [Gd]2 [Ge][Gd][GB][FA] | G2 [GB]2 [FA]2 D[DG] | [GB]2 [GB]2 [GB][GB][DG][DF] | %6
w: that bind me it will bring|re- lease; Bur- dens will|ed that are press- ing so,|
w: the com- rades that so long|have gone; In a fair-|gion ’mong the a- gel throng,|
w: dows o’er me rise and swift-|ly go; When my heart|ry, when the day is long,|
 [CE]2 [CG]2 [B,D]2 [DG][GB] | [Gd]2 [Gd]2 [Ge][Gd]G[GA] | [GB]2 [FA]2 G2 ||"^Refrain" Bd | %10
w: Show- ers of great bless-|ing o’er my heart will flow.|||
w: They are hap- py as|they sing that old, sweet song.|Sing to me|Hea- ven,|
w: Sing to me of Hea-|ven, sing that old, sweet song.|||
 (GG)(GG) [Ge][Gd]Bc | (GG)(FF) [Gd]2 BA | (EE)(EE) [EG][EG]FG | (FF) [GB]2 G2 [FA]G | %14
w: ||||
w: fond- * ly * dream, Of its gold-|ry, * of * its pearl- y|to * me * when sha- dows of|ening * fall, Sing to me|
w: ||||
 (GG)(GG) [GB][GB]GF | (CC)(CC) [B,D]2 GB | (GG)(GG) [Ge][Gd]G[GA] | (GG)(DD) [DG]2 |] %18
w: ||||
w: ven, * sweet- * est song of all.||||
w: ||||
V:2
 D x | x8 | x8 | x8 | G2 x2 D x3 | x8 | x8 | x8 | x4 G2 || Bd | e2 e2 x4 | d2 d2 x4 | G2 G2 x4 | %13
w: me||||be lift-|||||||||
w: me||||er re-||||of|let me|en glo-|gleam; Sing|the ev-|
w: me||||is wea-|||||||||
 A2 x G2 x3 | B2 B2 x4 | E2 G2 x4 | d2 d2 x4 | B2 A2 x2 |] %18
w: |||||
w: of Hea-|||||
w: |||||
V:3
 [G,B,][G,B,] | [G,D]2 [G,D]2 [G,D][G,D][B,,G,][B,,G,] | [C,G,]2 [E,G,]2 G,2 [G,B,][G,D] | %3
 [G,B,]2 [G,B,]2 [G,C][G,B,][G,D][D,C] | [E,B,]2 [A,,^C]2 [D,D]2 [G,B,][G,B,] | %5
 [G,D]2 [G,D]2 [G,D][G,D][B,,G,][B,,G,] | [C,G,]2 [E,G,]2 G,2 [G,B,][G,D] | %7
 [G,B,]2 [G,B,]2 [G,C][G,B,][B,,D][C,E] | [D,D]2 [D,C]2 [G,,B,]2 || z2 | %10
 ([C,C][C,C])([C,C][C,C]) [G,C][G,B,] z2 | ([G,B,][G,B,])([D,A,][D,A,]) [G,B,]2 z2 | %12
 ([E,B,][E,B,])([E,B,][E,B,]) [E,B,][E,B,] z2 | ([D,D][D,D])([A,,^C][A,,C]) [D,D]2 z2 | %14
 ([G,D][G,D])([G,D][G,D]) [G,D][G,D] z2 | ([C,G,][C,G,])([E,G,][E,G,]) G,2 z2 | %16
 ([G,B,][G,B,])([G,B,][G,B,]) [G,C][G,B,][B,,D][C,E] | ([D,D][D,D])([D,C][D,C]) [G,,B,]2 |] %18

